build/images/icons/fb.svg

<svg xmlns="http://www.w3.org/2000/svg" width="19" height="40"><path fill-rule="evenodd" fill="#4C43FA" d="M18.049 12.922h-6.055V8.89c0-1.514.988-1.867 1.684-1.867h4.273V.368L12.066.343c-6.532 0-8.019 4.965-8.019 8.142v4.437H.269v6.858h3.778v19.407h7.947V19.78h5.361l.694-6.858z"/></svg>

<svg 
 xmlns="http://www.w3.org/2000/svg"
 xmlns:xlink="http://www.w3.org/1999/xlink"
 width="19px" height="40px">
<path fill-rule="evenodd"  fill="rgb(76, 67, 250)"
 d="M18.049,12.922 L11.994,12.922 L11.994,8.890 C11.994,7.376 12.982,7.023 13.678,7.023 C14.373,7.023 17.951,7.023 17.951,7.023 L17.951,0.368 L12.066,0.343 C5.534,0.343 4.047,5.308 4.047,8.485 L4.047,12.922 L0.269,12.922 L0.269,19.780 L4.047,19.780 C4.047,28.582 4.047,39.187 4.047,39.187 L11.994,39.187 C11.994,39.187 11.994,28.476 11.994,19.780 L17.355,19.780 L18.049,12.922 Z"/>
</svg>
